X:3
T:Saint Patrick's Day
R:march
H:see also set dance#12
Z:id:hn-march-3
M:6/8
Q:3/8=120
K:G
~G3 GBd|gfe dBG|cBc AFD|EFE E2D|~G3 GBd|
gfe dBG|1 cBc AFD|E2F G2D:|2 cde dBG|E2F G2B||
|:def gag|fed e2B|def gag|fed e2B|def gbg|
fed efg|GAG GBd|gfe dBG|cBc AFD|EFG AFD|
GAG GBd|gfe dBG|cde dBG|1 E2F G2B:|2 E2F G2D||

